dist/img/white-insta.svg

<svg width="18" height="19" viewBox="0 0 18 19" fill="none" xmlns="http://www.w3.org/2000/svg">
<g clip-path="url(#clip0)">
<path fill-rule="evenodd" clip-rule="evenodd" d="M4.90633 0H13.1089C15.8127 0 18.0152 2.26287 18.0152 5.02513V13.4211C18.0152 16.1834 15.8127 18.4463 13.1089 18.4463H4.90633C2.20253 18.4307 0 16.1834 0 13.4211V5.02513C0 2.26287 2.20253 0 4.90633 0ZM4.90633 1.88832H13.1089C14.7949 1.88832 16.1772 3.30847 16.1772 5.02513V13.4211C16.1772 15.1534 14.7949 16.5579 13.1089 16.5579H4.90633C3.22025 16.5579 1.83797 15.1378 1.83797 13.4211V5.02513C1.83797 3.29286 3.22025 1.88832 4.90633 1.88832ZM9.0076 14.0142C6.42532 14.0142 4.32911 11.8762 4.32911 9.22313C4.32911 6.57012 6.42532 4.4321 9.0076 4.4321C11.5899 4.4321 13.6861 6.57012 13.6861 9.22313C13.6709 11.8605 11.5899 14.0142 9.0076 14.0142ZM9.0076 6.32042C10.5722 6.32042 11.8329 7.61572 11.8329 9.22313C11.8329 10.8306 10.5722 12.1258 9.0076 12.1258C7.44304 12.1258 6.16709 10.8306 6.16709 9.22313C6.16709 7.61572 7.42785 6.32042 9.0076 6.32042ZM13.9747 5.16558C13.4127 5.16558 12.957 4.6974 12.957 4.11998C12.957 3.54256 13.4127 3.07438 13.9747 3.07438C14.5367 3.07438 14.9924 3.54256 14.9924 4.11998C15.0076 4.6974 14.5519 5.16558 13.9747 5.16558Z" fill="white"/>
</g>
<defs>
<clipPath id="clip0">
<rect width="18" height="18.4307" fill="white"/>
</clipPath>
</defs>
</svg>

<svg width="18" height="19" fill="none" xmlns="http://www.w3.org/2000/svg"><g clip-path="url(#clip0)"><path fill-rule="evenodd" clip-rule="evenodd" d="M4.906 0h8.203c2.704 0 4.906 2.263 4.906 5.025v8.396c0 2.762-2.202 5.025-4.906 5.025H4.906C2.203 18.431 0 16.183 0 13.421V5.025C0 2.263 2.203 0 4.906 0zm0 1.888h8.203c1.686 0 3.068 1.42 3.068 3.137v8.396c0 1.732-1.382 3.137-3.068 3.137H4.906c-1.686 0-3.068-1.42-3.068-3.137V5.025c0-1.732 1.382-3.137 3.068-3.137zm4.102 12.126c-2.583 0-4.679-2.138-4.679-4.79 0-2.654 2.096-4.792 4.679-4.792 2.582 0 4.678 2.138 4.678 4.791-.015 2.637-2.096 4.791-4.678 4.791zm0-7.694c1.564 0 2.825 1.296 2.825 2.903 0 1.608-1.26 2.903-2.825 2.903-1.565 0-2.84-1.295-2.84-2.903 0-1.607 1.26-2.903 2.84-2.903zm4.967-1.154c-.562 0-1.018-.469-1.018-1.046 0-.577.456-1.046 1.018-1.046s1.017.469 1.017 1.046a1.013 1.013 0 01-1.017 1.046z" fill="#fff"/></g><defs><clipPath id="clip0"><path fill="#fff" d="M0 0h18v18.431H0z"/></clipPath></defs></svg>
